apps/scalable/plugin/plugin.svg

<svg xmlns="http://www.w3.org/2000/svg" style="isolation:isolate" width="256" height="256"><defs><filter id="a" width="270.648" height="254.338" x="-7.32" y="2.95" filterUnits="userSpaceOnUse"><feGaussianBlur xmlns="http://www.w3.org/2000/svg" in="SourceGraphic" stdDeviation="4.294"/><feOffset xmlns="http://www.w3.org/2000/svg" dy="4" result="pf_100_offsetBlur"/><feFlood xmlns="http://www.w3.org/2000/svg" flood-opacity=".4"/><feComposite xmlns="http://www.w3.org/2000/svg" in2="pf_100_offsetBlur" operator="in" result="pf_100_dropShadow"/><feBlend xmlns="http://www.w3.org/2000/svg" in="SourceGraphic" in2="pf_100_dropShadow"/></filter></defs><g filter="url(#a)"><linearGradient id="b" x1=".233" x2=".933" y1="-.071" y2=".995" gradientTransform="matrix(244.648 0 0 228.338 5.676 11.947)" gradientUnits="userSpaceOnUse"><stop offset="0%" stop-color="#e8e8e8"/><stop offset="100%" stop-color="#f5f5f5"/></linearGradient><path fill="url(#b)" d="M165.685 11.947c74.055 0 84.639 10.557 84.639 84.544v59.251c0 73.986-10.584 84.543-84.639 84.543h-75.37c-74.055 0-84.639-10.557-84.639-84.543V96.491c0-73.987 10.584-84.544 84.639-84.544h75.37z"/></g><g opacity=".4"><linearGradient id="c" x1=".517" x2=".517" y2="1"><stop offset="0%" stop-color="#fff"/><stop offset="12.5%" stop-opacity=".098" stop-color="#fff"/><stop offset="92.5%" stop-opacity=".098"/><stop offset="100%" stop-opacity=".498"/></linearGradient><path fill="none" stroke="url(#c)" stroke-linecap="round" stroke-linejoin="round" stroke-width="4.077" d="M165.685 11.947c74.055 0 84.639 10.557 84.639 84.544v59.251c0 73.986-10.584 84.543-84.639 84.543h-75.37c-74.055 0-84.639-10.557-84.639-84.543V96.491c0-73.987 10.584-84.544 84.639-84.544h75.37z" vector-effect="non-scaling-stroke"/></g><defs><filter id="d" width="186" height="179.574" x="35" y="42.21" filterUnits="userSpaceOnUse"><feGaussianBlur xmlns="http://www.w3.org/2000/svg" in="SourceGraphic" stdDeviation="4.294"/><feOffset xmlns="http://www.w3.org/2000/svg" dy="4" result="pf_100_offsetBlur"/><feFlood xmlns="http://www.w3.org/2000/svg" flood-opacity=".4"/><feComposite xmlns="http://www.w3.org/2000/svg" in2="pf_100_offsetBlur" operator="in" result="pf_100_dropShadow"/><feBlend xmlns="http://www.w3.org/2000/svg" in="SourceGraphic" in2="pf_100_dropShadow"/></filter></defs><path fill="#76C22B" d="M167.412 53.738c-2.768-1.333-5.4-2.136-7.894-2.408-2.541-.259-4.856-.088-6.948.513-2.092.6-3.939 1.587-5.541 2.96-1.602 1.373-2.876 3.047-3.826 5.019-.601 1.247-1.043 2.41-1.327 3.489-.298 1.107-.494 2.084-.589 2.932-.109.877-.149 1.609-.118 2.196.031.586.017 1.106.061 1.342l.267 2.63c.124 1.214-.006 2.155-.39 2.819-.361.682-1.052 1.077-2.074 1.181a5.152 5.152 0 0 1-.773.011 5.65 5.65 0 0 1-.754-.085L96.213 56.452 82.756 84.396a5.492 5.492 0 0 0-.085.753c-.015.282-.011.539.013.774.104 1.022.498 1.713 1.181 2.074.663.384 1.605.514 2.819.39l2.63-.267c.235-.044.756-.03 1.342-.061.587-.03 1.319.008 2.196.118.848.094 1.825.291 2.932.589 1.078.284 2.241.726 3.489 1.327 1.972.949 3.646 2.224 5.019 3.826 1.372 1.601 2.36 3.449 2.96 5.541.601 2.091.768 4.405.51 6.946-.272 2.494-1.072 5.128-2.405 7.895-1.333 2.768-2.853 5.071-4.562 6.913-1.722 1.796-3.559 3.128-5.511 3.991a13.689 13.689 0 0 1-6.09 1.183c-2.108-.075-4.221-.624-6.339-1.643a25.101 25.101 0 0 1-3.281-1.874 24.88 24.88 0 0 1-2.462-1.891c-.676-.6-1.225-1.139-1.64-1.613-.4-.506-.553-.834-.68-1.091l-1.429-2.226c-.66-1.026-1.349-1.682-2.063-1.96-.708-.308-1.495-.183-2.36.373a5.117 5.117 0 0 0-.612.471 5.475 5.475 0 0 0-.534.534L48 156.572l41.293 19.885c.22.042.473.071.754.086s.539.011.773-.012c1.023-.104 1.714-.498 2.074-1.181.385-.663.514-1.605.391-2.819l-.268-2.63c-.043-.235-.029-.755-.06-1.342-.031-.587.009-1.319.118-2.196.094-.847.291-1.825.589-2.932.284-1.078.726-2.241 1.326-3.488.95-1.973 2.225-3.647 3.826-5.019 1.602-1.373 3.449-2.36 5.541-2.961 2.092-.601 4.408-.771 6.948-.513 2.495.272 5.126 1.076 7.894 2.408 2.767 1.333 5.071 2.853 6.913 4.562 1.796 1.723 3.128 3.559 3.991 5.511a13.689 13.689 0 0 1 1.183 6.09c-.075 2.108-.624 4.222-1.644 6.339a25.001 25.001 0 0 1-1.873 3.282 24.972 24.972 0 0 1-1.892 2.461c-.6.676-1.139 1.225-1.613 1.64-.506.4-.833.553-1.09.68l-2.226 1.429c-1.026.661-1.682 1.349-1.961 2.063-.308.708-.183 1.495.373 2.36.128.198.285.402.472.613.187.211.364.388.534.534l27.755 13.365 19.793-41.104c.146-.17.323-.347.534-.534.211-.187.415-.344.613-.472.865-.556 1.652-.682 2.36-.373.714.279 1.402.935 2.063 1.961l1.429 2.226c.127.257.28.584.68 1.09.415.474.964 1.013 1.64 1.613a25.181 25.181 0 0 0 5.743 3.765c2.117 1.019 4.231 1.569 6.339 1.643 2.108.075 4.138-.32 6.09-1.182 1.952-.863 3.789-2.195 5.511-3.991 1.709-1.842 3.229-4.146 4.562-6.913 1.332-2.768 2.132-5.401 2.405-7.896.258-2.54.091-4.854-.51-6.946-.601-2.092-1.588-3.939-2.961-5.541-1.372-1.602-3.046-2.876-5.019-3.826-1.247-.601-2.41-1.043-3.488-1.327-1.107-.298-2.085-.494-2.932-.589-.877-.108-1.609-.149-2.196-.117-.587.03-1.107.019-1.342.06l-2.63.267c-1.214.124-2.156-.007-2.819-.39-.682-.362-1.077-1.051-1.181-2.074a5.126 5.126 0 0 1-.014-.773c.015-.281.044-.534.086-.754l13.456-27.944-27.754-13.365a5.475 5.475 0 0 1-.534-.534 5.137 5.137 0 0 1-.472-.613c-.556-.864-.682-1.652-.373-2.359.279-.715.934-1.403 1.961-2.063l2.226-1.43c.257-.126.584-.28 1.09-.679.474-.415 1.013-.965 1.613-1.64.6-.676 1.23-1.494 1.892-2.462a25.166 25.166 0 0 0 1.873-3.281c1.02-2.118 1.569-4.231 1.643-6.339a13.682 13.682 0 0 0-1.182-6.09c-.863-1.953-2.195-3.789-3.991-5.512-1.842-1.708-4.146-3.228-6.913-4.561z" filter="url(#d)"/></svg>

<svg xmlns="http://www.w3.org/2000/svg" style="isolation:isolate" width="256" height="256" viewBox="0 0 256 256">
 <defs>
  <filter id="BNCRHxfY7gLI8hBjJUr5NcTNY14GLFv1" width="270.648" height="254.338" x="-7.32" y="2.95" filterUnits="userSpaceOnUse">
   <feGaussianBlur xmlns="http://www.w3.org/2000/svg" in="SourceGraphic" stdDeviation="4.294"/>
   <feOffset xmlns="http://www.w3.org/2000/svg" dx="0" dy="4" result="pf_100_offsetBlur"/>
   <feFlood xmlns="http://www.w3.org/2000/svg" flood-opacity=".4"/>
   <feComposite xmlns="http://www.w3.org/2000/svg" in2="pf_100_offsetBlur" operator="in" result="pf_100_dropShadow"/>
   <feBlend xmlns="http://www.w3.org/2000/svg" in="SourceGraphic" in2="pf_100_dropShadow" mode="normal"/>
  </filter>
 </defs>
 <g filter="url(#BNCRHxfY7gLI8hBjJUr5NcTNY14GLFv1)">
  <linearGradient id="_lgradient_30" x1=".233" x2=".933" y1="-.071" y2=".995" gradientTransform="matrix(244.648,0,0,228.338,5.676,11.947)" gradientUnits="userSpaceOnUse">
   <stop offset="0%" style="stop-color:rgb(232,232,232)"/>
   <stop offset="100%" style="stop-color:rgb(245,245,245)"/>
  </linearGradient>
  <path fill="url(#_lgradient_30)" d="M 165.685 11.947 C 239.74 11.947 250.324 22.504 250.324 96.491 L 250.324 155.742 C 250.324 229.728 239.74 240.285 165.685 240.285 L 90.315 240.285 C 16.26 240.285 5.676 229.728 5.676 155.742 L 5.676 96.491 C 5.676 22.504 16.26 11.947 90.315 11.947 L 165.685 11.947 Z"/>
 </g>
 <g opacity=".4">
  <linearGradient id="_lgradient_31" x1=".517" x2=".517" y1="0" y2="1">
   <stop offset="0%" style="stop-color:rgb(255,255,255)"/>
   <stop offset="12.5%" stop-opacity=".098" style="stop-color:rgb(255,255,255)"/>
   <stop offset="92.5%" stop-opacity=".098" style="stop-color:rgb(0,0,0)"/>
   <stop offset="100%" stop-opacity=".498" style="stop-color:rgb(0,0,0)"/>
  </linearGradient>
  <path fill="none" stroke="url(#_lgradient_31)" stroke-linecap="round" stroke-linejoin="round" stroke-width="4.077" d="M 165.685 11.947 C 239.74 11.947 250.324 22.504 250.324 96.491 L 250.324 155.742 C 250.324 229.728 239.74 240.285 165.685 240.285 L 90.315 240.285 C 16.26 240.285 5.676 229.728 5.676 155.742 L 5.676 96.491 C 5.676 22.504 16.26 11.947 90.315 11.947 L 165.685 11.947 Z" vector-effect="non-scaling-stroke"/>
 </g>
 <defs>
  <filter id="PCus7jnjNx8lT1IwrsG3OisGNkQvSsPf" width="186" height="179.574" x="35" y="42.21" filterUnits="userSpaceOnUse">
   <feGaussianBlur xmlns="http://www.w3.org/2000/svg" in="SourceGraphic" stdDeviation="4.294"/>
   <feOffset xmlns="http://www.w3.org/2000/svg" dx="0" dy="4" result="pf_100_offsetBlur"/>
   <feFlood xmlns="http://www.w3.org/2000/svg" flood-opacity=".4"/>
   <feComposite xmlns="http://www.w3.org/2000/svg" in2="pf_100_offsetBlur" operator="in" result="pf_100_dropShadow"/>
   <feBlend xmlns="http://www.w3.org/2000/svg" in="SourceGraphic" in2="pf_100_dropShadow" mode="normal"/>
  </filter>
 </defs>
 <g filter="url(#PCus7jnjNx8lT1IwrsG3OisGNkQvSsPf)">
  <path fill="#76C22B" d="M 167.412 53.738 C 164.644 52.405 162.012 51.602 159.518 51.33 C 156.977 51.071 154.662 51.242 152.57 51.843 C 150.478 52.443 148.631 53.43 147.029 54.803 C 145.427 56.176 144.153 57.85 143.203 59.822 C 142.602 61.069 142.16 62.232 141.876 63.311 C 141.578 64.418 141.382 65.395 141.287 66.243 C 141.178 67.12 141.138 67.852 141.169 68.439 C 141.2 69.025 141.186 69.545 141.23 69.781 L 141.497 72.411 C 141.621 73.625 141.491 74.566 141.107 75.23 C 140.746 75.912 140.055 76.307 139.033 76.411 C 138.798 76.434 138.541 76.437 138.26 76.422 C 137.978 76.407 137.725 76.379 137.506 76.337 L 96.213 56.452 L 82.756 84.396 C 82.714 84.615 82.685 84.868 82.671 85.149 C 82.656 85.431 82.66 85.688 82.684 85.923 C 82.788 86.945 83.182 87.636 83.865 87.997 C 84.528 88.381 85.47 88.511 86.684 88.387 L 89.314 88.12 C 89.549 88.076 90.07 88.09 90.656 88.059 C 91.243 88.029 91.975 88.067 92.852 88.177 C 93.7 88.271 94.677 88.468 95.784 88.766 C 96.862 89.05 98.025 89.492 99.273 90.093 C 101.245 91.042 102.919 92.317 104.292 93.919 C 105.664 95.52 106.652 97.368 107.252 99.46 C 107.853 101.551 108.02 103.865 107.762 106.406 C 107.49 108.9 106.69 111.534 105.357 114.301 C 104.024 117.069 102.504 119.372 100.795 121.214 C 99.073 123.01 97.236 124.342 95.284 125.205 C 93.332 126.068 91.302 126.462 89.194 126.388 C 87.086 126.313 84.973 125.764 82.855 124.745 C 81.637 124.158 80.541 123.533 79.574 122.871 C 78.606 122.21 77.788 121.579 77.112 120.98 C 76.436 120.38 75.887 119.841 75.472 119.367 C 75.072 118.861 74.919 118.533 74.792 118.276 L 73.363 116.05 C 72.703 115.024 72.014 114.368 71.3 114.09 C 70.592 113.782 69.805 113.907 68.94 114.463 C 68.742 114.59 68.539 114.748 68.328 114.934 C 68.117 115.121 67.939 115.298 67.794 115.468 L 48 156.572 L 89.293 176.457 C 89.513 176.499 89.766 176.528 90.047 176.543 C 90.328 176.558 90.586 176.554 90.82 176.531 C 91.843 176.427 92.534 176.033 92.894 175.35 C 93.279 174.687 93.408 173.745 93.285 172.531 L 93.017 169.901 C 92.974 169.666 92.988 169.146 92.957 168.559 C 92.926 167.972 92.966 167.24 93.075 166.363 C 93.169 165.516 93.366 164.538 93.664 163.431 C 93.948 162.353 94.39 161.19 94.99 159.943 C 95.94 157.97 97.215 156.296 98.816 154.924 C 100.418 153.551 102.265 152.564 104.357 151.963 C 106.449 151.362 108.765 151.192 111.305 151.45 C 113.8 151.722 116.431 152.526 119.199 153.858 C 121.966 155.191 124.27 156.711 126.112 158.42 C 127.908 160.143 129.24 161.979 130.103 163.931 C 130.966 165.883 131.36 167.913 131.286 170.021 C 131.211 172.129 130.662 174.243 129.642 176.36 C 129.056 177.579 128.431 178.674 127.769 179.642 C 127.107 180.609 126.477 181.427 125.877 182.103 C 125.277 182.779 124.738 183.328 124.264 183.743 C 123.758 184.143 123.431 184.296 123.174 184.423 L 120.948 185.852 C 119.922 186.513 119.266 187.201 118.987 187.915 C 118.679 188.623 118.804 189.41 119.36 190.275 C 119.488 190.473 119.645 190.677 119.832 190.888 C 120.019 191.099 120.196 191.276 120.366 191.422 L 148.121 204.787 L 167.914 163.683 C 168.06 163.513 168.237 163.336 168.448 163.149 C 168.659 162.962 168.863 162.805 169.061 162.677 C 169.926 162.121 170.713 161.995 171.421 162.304 C 172.135 162.583 172.823 163.239 173.484 164.265 L 174.913 166.491 C 175.04 166.748 175.193 167.075 175.593 167.581 C 176.008 168.055 176.557 168.594 177.233 169.194 C 177.909 169.794 178.727 170.424 179.694 171.086 C 180.662 171.748 181.758 172.372 182.976 172.959 C 185.093 173.978 187.207 174.528 189.315 174.602 C 191.423 174.677 193.453 174.282 195.405 173.42 C 197.357 172.557 199.194 171.225 200.916 169.429 C 202.625 167.587 204.145 165.283 205.478 162.516 C 206.81 159.748 207.61 157.115 207.883 154.62 C 208.141 152.08 207.974 149.766 207.373 147.674 C 206.772 145.582 205.785 143.735 204.412 142.133 C 203.04 140.531 201.366 139.257 199.393 138.307 C 198.146 137.706 196.983 137.264 195.905 136.98 C 194.798 136.682 193.82 136.486 192.973 136.391 C 192.096 136.283 191.364 136.242 190.777 136.274 C 190.19 136.304 189.67 136.293 189.435 136.334 L 186.805 136.601 C 185.591 136.725 184.649 136.594 183.986 136.211 C 183.304 135.849 182.909 135.16 182.805 134.137 C 182.781 133.903 182.777 133.645 182.791 133.364 C 182.806 133.083 182.835 132.83 182.877 132.61 L 196.333 104.666 L 168.579 91.301 C 168.409 91.156 168.232 90.978 168.045 90.767 C 167.858 90.556 167.701 90.352 167.573 90.154 C 167.017 89.29 166.891 88.502 167.2 87.795 C 167.479 87.08 168.134 86.392 169.161 85.732 L 171.387 84.302 C 171.644 84.176 171.971 84.022 172.477 83.623 C 172.951 83.208 173.49 82.658 174.09 81.983 C 174.69 81.307 175.32 80.489 175.982 79.521 C 176.644 78.553 177.268 77.458 177.855 76.24 C 178.875 74.122 179.424 72.009 179.498 69.901 C 179.573 67.792 179.178 65.762 178.316 63.811 C 177.453 61.858 176.121 60.022 174.325 58.299 C 172.483 56.591 170.179 55.071 167.412 53.738 L 167.412 53.738 Z"/>
 </g>
</svg>
